X:1
T:"WE HATE IT WHEN OUR FRIENDS BECOME SUCCESSFUL"
C:Whyte
Z:All Rights Reserved
L:1/8
Q:1/4=120
M:4/4
K:F
V:1 treble nm="MusicXML Part"
%%MIDI program 0
V:1
"F" A4 z AGF |"Gm" A4 z AGF |"Bb" A4 z AGF |"C" c6 z2 |"Dm" A4 z AGF |"Eb" A4 z AGF | %6
w: La la dah de|La la dah de|La la dah de|dah|La la dah de|La la dah de|
"Gm" A4 z AGF | z"Bb" [B,DF]z"C"[CEG]- [CEG]4 |:"F" F,8 |"Bb" z2 Ac- c2 B2 |"Gm" A2 G2 A2 GA | %11
w: La la dah de|||We Hate _ It|When Our Friends Be come|
"Bb" z2 Bc- c2 A2 :|"Db" _A4 cBAc- |"Ab" c _A3 z4 |"Eb" z4 BBBB- | B2 z _A- A2 c2 | %16
w: Suc cess _ ful|OH, look at those clothes|_ _|Look at that face|_ its _ so|
"Db" _A- F3 z FAB |"Ab" c_d c4- c2 |"Gm" G8 |"Bb" z ccc"C" cBAA- |:"F" A2 A2 ABcA- | %21
w: old _ And such a|vid e o _|WELL!|Its real ly laugh ab le Ah|_ ha ha ha ha ha|
"Gm" A2 A2 ABcA- |"Bb" A2 A2 AB d2 |"C" d2 c2 c B2 c |"Dm" z2 A2 ABcA- |"Eb" A2 A2 AAAA- | %26
w: _ ha ha ha ha ha|_ ha ha ha ha|_ ha ha ha ha|ha ha ha ha ha|_ ha ha ha ha ha|
"Gm" A F3 z4 | z"Bb" [B,DF]z"C"[CEG]- [CEG]4 |"F" F,8 |"Bb" z2 Ac- c2 B2 |"Gm" A2 G2 A2 GA | %31
w: _ ha|||We Hate _ It|When Our Friends Be come|
"Bb" z2 Bc- c2 A2 |"F" z2 A2 A2 B2 |"Bb" c3 A- A2 A2 |"Gm" A2 B2 A2 B2 |"Bb" c3 A z4 | %36
w: Suc cess _ ful|and if they're|North ern _ that|makes it ev en|worse AND|
"Db" z2 z c2 c B_A |"Ab" c2 _A2 z4 |"Eb" z2 BB _ABAB- | B2 _Ac- c4 |"Db" _A- F3 AABc- | %41
w: If we could de|stroy them|You bet your life we will|_ de stroy _|them _ If we can hurt|
"Ab" c_A- A2 c2 BA |"Gm" G G3 z4 |"Bb" z ccc"C" cBAA :|"Dm" z2 dd ddcA |"C" cA z2"Bb" z4 | %46
w: _ them _ Well, we may|as well|Its real ly laugh ab le Ah|You see it shoul da been|me _|
"Gm" z4 ddcA |"Bb" c2- A2"C" z4 |"Dm" z dcc cc- f2 |"C" z2 z c"Bb" ccBA |"Gm" c2 A6 | %51
w: It coul da been|me _|Ev' ry bod y knows _|Ev' ry bod y _|says "SO!"|
"Bb" z c2 A z AzB |"F" c2 B A2 z2 B- |"Gm" BcBA- A2 z B- |"Bb" Bc- c6 |"C" z2 z G c4 | %56
w: They say: You have|loads of songs so|_ man y songs _ More|_ Songs _|than they'd|
"Dm" z A3 z A3 |"Eb" z F F2 z FFF | z D3 z D3 | z"Bb" [B,DF]z"C"[CEG]- [CEG]4 |] %60
w: stand. "verse"|"chor us" "mid dle eight"|"break" "fade"||

